packages/sources/icons/src/vitamix/return-line.svg

<svg width="16" height="16" viewBox="0 0 16 16" xmlns="http://www.w3.org/2000/svg"><path d="M6.85717 3.5247L4.38638 5.99549L6.85717 8.46627L7.79974 7.5237L6.93803 6.66199H8.66146C9.18447 6.66199 9.68599 6.83831 10.0487 7.16444C10.3996 7.47998 10.661 7.97084 10.661 8.69567C10.661 9.41868 10.4014 9.88747 10.0583 10.1842C9.70033 10.4939 9.19762 10.661 8.66146 10.661H5.32896V11.994H8.66146C9.45829 11.994 10.2886 11.7475 10.9304 11.1924C11.587 10.6245 11.994 9.77734 11.994 8.69567C11.994 7.61581 11.5888 6.75658 10.94 6.17321C10.3029 5.60042 9.47144 5.32899 8.66146 5.32899H6.93803L7.79974 4.46727L6.85717 3.5247Z"/><path d="M1.32996 1.99649C1.32996 1.62839 1.62836 1.32999 1.99646 1.32999H13.9935C14.3616 1.32999 14.66 1.62839 14.66 1.99649V13.9935C14.66 14.3616 14.3616 14.66 13.9935 14.66H1.99646C1.62836 14.66 1.32996 14.3616 1.32996 13.9935V1.99649ZM2.66296 2.66299V13.327H13.327V2.66299H2.66296Z"/></svg>

<svg width="16" height="16" xmlns="http://www.w3.org/2000/svg"><path d="m6.857 3.525-2.47 2.47 2.47 2.471.943-.942-.862-.862h1.723c.523 0 1.025.176 1.388.502.35.316.612.807.612 1.532 0 .723-.26 1.191-.603 1.488-.358.31-.86.477-1.397.477H5.33v1.333h3.332c.797 0 1.628-.246 2.27-.802.656-.568 1.063-1.415 1.063-2.496 0-1.08-.405-1.94-1.054-2.523-.637-.573-1.469-.844-2.279-.844H6.938l.862-.862-.943-.942Z"/><path d="M1.33 1.996c0-.368.298-.666.666-.666h11.997c.369 0 .667.298.667.666v11.997a.666.666 0 0 1-.667.667H1.996a.666.666 0 0 1-.666-.667V1.996Zm1.333.667v10.664h10.664V2.663H2.663Z"/></svg>
